src/rails.svg

<?xml version="1.0" encoding="UTF-8" standalone="no"?>
<!-- Generator: Adobe Illustrator 19.2.1, SVG Export Plug-In . SVG Version: 6.00 Build 0)  -->

<svg
   xmlns:dc="http://purl.org/dc/elements/1.1/"
   xmlns:cc="http://creativecommons.org/ns#"
   xmlns:rdf="http://www.w3.org/1999/02/22-rdf-syntax-ns#"
   xmlns:svg="http://www.w3.org/2000/svg"
   xmlns="http://www.w3.org/2000/svg"
   xmlns:sodipodi="http://sodipodi.sourceforge.net/DTD/sodipodi-0.dtd"
   xmlns:inkscape="http://www.inkscape.org/namespaces/inkscape"
   version="1.1"
   id="Layer_1"
   x="0px"
   y="0px"
   viewBox="0 0 16 16"
   xml:space="preserve"
   inkscape:version="0.91 r13725"
   sodipodi:docname="rails.svg"
   width="16"
   height="16"><metadata
     id="metadata37"><rdf:RDF><cc:Work
         rdf:about=""><dc:format>image/svg+xml</dc:format><dc:type
           rdf:resource="http://purl.org/dc/dcmitype/StillImage" /><dc:title></dc:title></cc:Work></rdf:RDF></metadata><defs
     id="defs35" /><sodipodi:namedview
     pagecolor="#ffffff"
     bordercolor="#666666"
     borderopacity="1"
     objecttolerance="10"
     gridtolerance="10"
     guidetolerance="10"
     inkscape:pageopacity="0"
     inkscape:pageshadow="2"
     inkscape:window-width="1366"
     inkscape:window-height="705"
     id="namedview33"
     showgrid="false"
     inkscape:zoom="2.3137255"
     inkscape:cx="51"
     inkscape:cy="51"
     inkscape:window-x="-8"
     inkscape:window-y="-8"
     inkscape:window-maximized="1"
     inkscape:current-layer="Layer_1" /><style
     type="text/css"
     id="style3">
	.st0{fill:#9E0D6A;}
</style><path
     style="fill:#000000"
     d="m 11.197456,0 -1.007897,0.111653 0.09623,1.053838 1.055697,-0.06362 L 11.197457,4e-6 Z M 7.5823396,0.638728 6.5425758,1.245332 7.1343162,2.267358 8.17408,1.708471 7.5823396,0.638728 Z m 6.7184734,0.686445 -0.208078,0.399204 0.895734,0.542981 0.192144,-0.446922 -0.8798,-0.495263 z M 11.207141,1.356984 C 8.7928456,1.404546 6.9743526,2.970021 6.9743526,2.970021 1.8875085,7.968064 1.8555158,16 1.8555158,16 l 7.5823394,0 C 6.7824587,9.692565 9.5178361,5.189661 9.5178361,5.189661 11.933287,1.724564 15.500539,3.848271 15.500539,3.848271 16.252369,4.055857 15.932316,3.576937 15.932316,3.576937 14.318683,1.846384 12.655717,1.328447 11.20714,1.356984 Z M 4.2709046,3.193638 3.3433028,4.215664 4.3508863,5.125726 5.2788004,4.167635 4.2709046,3.193638 Z m 9.5500174,0.383299 0,0.574792 0.943847,0.01591 0,-0.527075 -0.943847,-0.06362 z m -2.19169,0.271334 0,0.814315 0.623921,0.271647 0,-0.814628 -0.623921,-0.271334 z m -1.6315036,1.325484 0,1.005809 0.7679496,0.33527 0,-0.989903 L 9.9977284,5.173755 Z M 1.6955521,7.137655 1.1997274,8.46314 2.5113043,8.958091 3.0393094,7.680636 1.6955521,7.137655 Z m 7.1183824,0.07984 0,1.21352 0.9438483,0.431329 0,-1.229738 -0.9438483,-0.415111 z m -0.2399454,2.858368 0,0.910062 1.0719437,0.367393 0,-0.862344 -1.0719437,-0.415111 z M 0.06404792,11.960235 0,13.684613 l 1.5996365,0.12787 0.064048,-1.772407 -1.59963658,-0.07984 z m 9.03794668,1.660443 0.4158425,1.13399 1.3756249,0 -0.495825,-1.13399 -1.2956424,0 z"
     id="polygon7"
     inkscape:connector-curvature="0" /></svg>

<svg xmlns="http://www.w3.org/2000/svg" viewBox="0 0 16 16">
 <path d="m11.197 0-1.0079 0.11165 0.09623 1.0538 1.0557-0.06362l-0.144-1.1018zm-3.6147 0.63873-1.0397 0.60657 0.5917 1.0221 1.0398-0.5589-0.5918-1.0698zm6.7185 0.68644-0.20808 0.3992 0.89573 0.54298 0.19214-0.44692-0.8798-0.49526zm-3.094 0.0318c-2.4142 0.0475-4.2326 1.613-4.2326 1.613-5.0869 4.9981-5.1189 13.03-5.1189 13.03h7.5823c-2.6553-6.3074 0.08-10.81 0.08-10.81 2.4152-3.4654 5.9832-1.3417 5.9832-1.3417 0.751 0.2076 0.431-0.2714 0.431-0.2714-1.613-1.7305-3.276-2.2485-4.725-2.2199zm-6.9361 1.8366-0.9276 1.0221 1.0076 0.91 0.9279-0.9581-1.0079-0.974zm9.55 0.3833v0.57479l0.94385 0.01591v-0.52708l-0.94385-0.06362zm-2.1917 0.27133v0.81432l0.62392 0.27165v-0.81463l-0.62392-0.27133zm-1.6315 1.3255v1.0058l0.76795 0.33527v-0.9899l-0.7673-0.3511zm-8.3019 1.964-0.4959 1.3254 1.3116 0.495 0.528-1.2775-1.3437-0.5429zm7.1184 0.07984v1.2135l0.94385 0.43133v-1.2297l-0.94385-0.41511zm-0.23995 2.8584v0.91006l1.0719 0.36739v-0.86234l-1.0719-0.41511zm-8.51 1.884-0.064048 1.725l1.5996 0.12787 0.064048-1.7724-1.5996-0.07984zm9.0379 1.6604 0.41584 1.134h1.3756l-0.49582-1.134h-1.2956z"/>
</svg>
